neru-light-classic/32x32/apps/sunflower.svg

<?xml version="1.0" encoding="UTF-8" standalone="no"?>
<svg
   xmlns:dc="http://purl.org/dc/elements/1.1/"
   xmlns:cc="http://creativecommons.org/ns#"
   xmlns:rdf="http://www.w3.org/1999/02/22-rdf-syntax-ns#"
   xmlns:svg="http://www.w3.org/2000/svg"
   xmlns="http://www.w3.org/2000/svg"
   xmlns:sodipodi="http://sodipodi.sourceforge.net/DTD/sodipodi-0.dtd"
   xmlns:inkscape="http://www.inkscape.org/namespaces/inkscape"
   height="32"
   width="32"
   version="1"
   id="svg14"
   sodipodi:docname="sunflower.svg"
   inkscape:version="0.92.1 r">
  <metadata
     id="metadata20">
    <rdf:RDF>
      <cc:Work
         rdf:about="">
        <dc:format>image/svg+xml</dc:format>
        <dc:type
           rdf:resource="http://purl.org/dc/dcmitype/StillImage" />
      </cc:Work>
    </rdf:RDF>
  </metadata>
  <defs
     id="defs18" />
  <sodipodi:namedview
     pagecolor="#ffffff"
     bordercolor="#666666"
     borderopacity="1"
     objecttolerance="10"
     gridtolerance="10"
     guidetolerance="10"
     inkscape:pageopacity="0"
     inkscape:pageshadow="2"
     inkscape:window-width="640"
     inkscape:window-height="480"
     id="namedview16"
     showgrid="false"
     inkscape:zoom="5.9220193"
     inkscape:cx="0.3535914"
     inkscape:cy="20.959954"
     inkscape:current-layer="svg14" />
  <rect
     style="opacity:1;fill:#d99800;fill-opacity:1;fill-rule:evenodd;stroke:none;stroke-width:1.03534329;stroke-linecap:round;stroke-linejoin:bevel;stroke-miterlimit:4;stroke-dasharray:none;stroke-dashoffset:0;stroke-opacity:1"
     id="rect4497-3-3"
     width="28.203388"
     height="28.203388"
     x="1.8983059"
     y="1.8983059"
     ry="5.575182" />
  <g
     id="g4506"
     transform="matrix(0.84413161,0,0,0.84413161,2.4933878,2.493641)"
     style="stroke-width:1.18464935">
    <path
       id="path2"
       d="M 16,3 12.1923,6.8077 H 6.8077 v 5.3846 l -3.8074,3.808 3.8077,3.8077 v 5.3846 h 5.3846 l 3.808,3.808 3.8077,-3.8077 h 5.3846 v -5.3846 l 3.808,-3.808 -3.8077,-3.8077 V 6.808 h -5.3846 l -3.808,-3.8077 z"
       inkscape:connector-curvature="0"
       style="fill:#fec006;stroke-width:1.18464935" />
    <path
       id="path4"
       d="m 11.025,3.9892 -2.0617,4.9747 -4.9747,2.0617 2.0602,4.9747 -2.0602,4.9746 4.9747,2.0617 2.0617,4.9747 4.9746,-2.0602 4.9747,2.0602 2.0617,-4.9747 4.9747,-2.0617 -2.06,-4.976 2.059,-4.975 -4.974,-2.0615 -2.062,-4.9746 -4.975,2.0602 -4.974,-2.0602 z"
       inkscape:connector-curvature="0"
       style="fill:#fecd38;stroke-width:1.18464935" />
    <rect
       id="rect8"
       x="-26"
       y="-26"
       width="20"
       height="20"
       ry="10"
       rx="10"
       transform="matrix(0,-1,-1,0,0,0)"
       style="fill:#4d4d4d;stroke-width:1.18464935" />
  </g>
</svg>

<svg xmlns="http://www.w3.org/2000/svg" height="32" width="32" version="1"><rect width="28.203" height="28.203" x="1.898" y="1.898" ry="5.575" fill="#d99800" fill-rule="evenodd"/><g transform="translate(2.493 2.494) scale(.84413)" stroke-width="1.185"><path d="M16 3l-3.808 3.808H6.808v5.384L3 16l3.808 3.808v5.385h5.385L16 29l3.807-3.808h5.385v-5.385L29 16l-3.808-3.807V6.808H19.81L16 3z" fill="#fec006"/><path d="M11.025 3.99L8.963 8.963 3.99 11.026 6.049 16l-2.06 4.975 4.974 2.062 2.062 4.974L16 25.951l4.974 2.06 2.062-4.974 4.975-2.062-2.06-4.976 2.059-4.975-4.974-2.062-2.062-4.974-4.975 2.06-4.974-2.06z" fill="#fecd38"/><rect x="-26" y="-26" width="20" height="20" ry="10" rx="10" transform="matrix(0 -1 -1 0 0 0)" fill="#4d4d4d"/></g></svg>
